X:1
T:Title
%%score { 1 | 2 }
L:1/8
M:4/4
K:G
V:1 treble nm="Grand Piano"
V:2 bass 
V:1
 z4 z2[Q:1/4=100] D2 | D2 [DG]2 B3 A | A2 G2 z2 [G,DG]2 | [G,EG]3 [A,^DF] [G,EG]2 [G,CE]2 | %4
[M:3/4] [G,B,D]4 z2 |[M:1/4] [B,D]2 |[M:4/4] [B,D]2 [G,DG]2 B3 A | A2 G2 z2 B2 | A2 d2 d2 ^c2 | %9
[M:3/4] [Fd]4 z2 |[M:1/4] [Fd]2 |[M:4/4] [Fe]3 [Fd] [Fc]2 [GB]2 | [Fd]2 [Fc]2 z2 [Fc]2 | %13
 [Ac]3 A d2 c2 |[M:3/4] B4 z2 |[M:1/4] B2 |[M:4/4] [EB]2 [EA]2 [EA]2 [DG]2 | %17
[M:9/8] [DF]2 [CE]- [CE] [Ec]2- [Ec] E2 |[M:4/4] D2 B2 B3 A |[M:3/4] [B,G]6 |] %20
V:2
 z4 z2 [G,B,]2 | [G,B,]2 [B,,G,]2 [D,G,D]3 [D,F,C] | [D,F,C]2 [G,B,]2 z2 B,,2 | C,3 C, C,2 C,2 | %4
[M:3/4] G,,4 z2 |[M:1/4] G,2 |[M:4/4] G,2 B,,2 [D,G,D]3 [D,F,C] | %7
 [D,F,C]2 [G,B,]2 z2[K:treble] [G,DG]2 | [A,DF]2 [A,DF]2 [A,EG]2 [A,EG]2 | %9
[M:3/4][K:bass] [D,D]4 z2 |[M:1/4] [D,A,]2 |[M:4/4] [D,C]3 [D,B,] [D,A,]2 [D,B,]2 | %12
 [D,A,]2 [D,D]2 z2 [D,D]2 | [F,D]3[K:treble] [CDF] [B,DG]2 [A,DF]2 |[M:3/4] [G,DG]4 z2 | %15
[M:1/4][K:bass] [G,D]2 |[M:4/4] [C,G,]2 [C,G,]2 [C,G,]2 [B,,G,]2 | %17
[M:9/8] [C,G,]2 [C,G,]- [C,G,] [C,G,]2- [C,G,] [C,G,C]2 | %18
[M:4/4] [D,G,B,]2 [D,G,D]2 [D,F,D]3 [D,F,C] |[M:3/4] [G,,G,]6 |] %20

